images/vk-icon.svg

<svg width="41" height="41" viewBox="0 0 41 41" fill="none" xmlns="http://www.w3.org/2000/svg">
<rect width="41" height="41" rx="8" fill="url(#paint0_linear_107_199)"/>
<path fill-rule="evenodd" clip-rule="evenodd" d="M20.7617 26.5021H22.0767C22.0767 26.5021 22.4747 26.4581 22.6767 26.2391C22.8637 26.0391 22.8577 25.6611 22.8577 25.6611C22.8577 25.6611 22.8327 23.8951 23.6507 23.6371C24.4587 23.3811 25.4957 25.3431 26.5937 26.0971C27.4247 26.6671 28.0567 26.5431 28.0567 26.5431L30.9957 26.5021C30.9957 26.5021 32.5327 26.4071 31.8037 25.1981C31.7437 25.0981 31.3797 24.3041 29.6187 22.6701C27.7757 20.9601 28.0227 21.2361 30.2427 18.2781C31.5947 16.4771 32.1347 15.3771 31.9657 14.9061C31.8047 14.4571 30.8097 14.5761 30.8097 14.5761L27.5017 14.5961C27.356 14.5795 27.2086 14.6059 27.0777 14.6721C26.8997 14.7791 26.7857 15.0251 26.7857 15.0251C26.7857 15.0251 26.2617 16.4201 25.5637 17.6051C24.0907 20.1071 23.5007 20.2401 23.2607 20.0841C22.7007 19.7221 22.8407 18.6291 22.8407 17.8541C22.8407 15.4291 23.2077 14.4181 22.1247 14.1561C21.7647 14.0701 21.4997 14.0151 20.5797 14.0031C19.3997 13.9901 18.3997 14.0061 17.8347 14.2851C17.4587 14.4701 17.1677 14.8801 17.3447 14.9041C17.5637 14.9331 18.0587 15.0371 18.3217 15.3941C18.6617 15.8561 18.6487 16.8921 18.6487 16.8921C18.6487 16.8921 18.8437 19.7471 18.1937 20.1011C17.7477 20.3441 17.1337 19.8481 15.8227 17.5781C15.3767 16.7881 14.9827 15.9701 14.6417 15.1301C14.5812 14.9869 14.4877 14.8601 14.3687 14.7601C14.2149 14.6582 14.0421 14.5885 13.8607 14.5551L10.7167 14.5761C10.7167 14.5761 10.2447 14.5901 10.0717 14.7961C9.9177 14.9791 10.0597 15.3561 10.0597 15.3561C10.0597 15.3561 12.5197 21.1171 15.3067 24.0141C17.8647 26.6781 20.7617 26.5021 20.7617 26.5021Z" fill="white"/>
<defs>
<linearGradient id="paint0_linear_107_199" x1="20.5" y1="0" x2="20.5" y2="41" gradientUnits="userSpaceOnUse">
<stop stop-color="#4074A2"/>
<stop offset="1" stop-color="#2F5C89"/>
</linearGradient>
</defs>
</svg>

<svg xmlns="http://www.w3.org/2000/svg" width="41" height="41" fill="none"><rect width="41" height="41" fill="url(#a)" rx="8"/><path fill="#fff" fill-rule="evenodd" d="M20.762 26.502h1.315s.398-.044.6-.263c.187-.2.18-.578.18-.578s-.024-1.766.794-2.024c.808-.256 1.845 1.706 2.943 2.46.83.57 1.463.446 1.463.446l2.939-.04s1.537-.096.808-1.305c-.06-.1-.424-.894-2.185-2.528-1.843-1.71-1.596-1.434.624-4.392 1.352-1.8 1.892-2.9 1.723-3.372-.161-.449-1.156-.33-1.156-.33l-3.308.02a.751.751 0 0 0-.424.076c-.178.107-.292.353-.292.353s-.524 1.395-1.222 2.58c-1.473 2.502-2.063 2.635-2.303 2.48-.56-.363-.42-1.456-.42-2.23 0-2.426.367-3.437-.716-3.699-.36-.086-.625-.14-1.545-.153-1.18-.013-2.18.003-2.745.282-.376.185-.667.595-.49.62.219.028.714.132.977.49.34.461.327 1.497.327 1.497s.195 2.855-.455 3.21c-.446.242-1.06-.254-2.371-2.524-.446-.79-.84-1.608-1.181-2.448a.983.983 0 0 0-.273-.37 1.368 1.368 0 0 0-.508-.205l-3.144.021s-.472.014-.645.22c-.154.183-.012.56-.012.56s2.46 5.761 5.247 8.658c2.558 2.664 5.455 2.488 5.455 2.488Z" clip-rule="evenodd"/><defs><linearGradient id="a" x1="20.5" x2="20.5" y1="0" y2="41" gradientUnits="userSpaceOnUse"><stop stop-color="#4074A2"/><stop offset="1" stop-color="#2F5C89"/></linearGradient></defs></svg>
